;FLAVOR:Marlin
;TIME:45329
;Filament used: 49.095m
;Layer height: 0.28
;MINX:29.368
;MINY:99.336
;MINZ:0.336
;MAXX:270.665
;MAXY:200.664
;MAXZ:46.266
;Generated with Cura_SteamEngine 4.8.0
M140 S70
M105
M190 S70
M104 S210
M105
M109 S210
M82 ;absolute extrusion mode
M201 X500.00 Y500.00 Z100.00 E5000.00 ;Setup machine max acceleration
M203 X500.00 Y500.00 Z10.00 E50.00 ;Setup machine max feedrate
M204 P500.00 R1000.00 T500.00 ;Setup Print/Retract/Travel acceleration
M205 X8.00 Y8.00 Z0.40 E5.00 ;Setup Jerk
M220 S100 ;Reset Feedrate
M221 S100 ;Reset Flowrate

G28 ;Home

G92 E0 ;Reset Extruder
G1 Z2.0 F3000 ;Move Z Axis up
G1 X10.1 Y20 Z0.28 F5000.0 ;Move to start position
G1 X10.1 Y200.0 Z0.28 F1500.0 E15 ;Draw the first line
G1 X10.4 Y200.0 Z0.28 F5000.0 ;Move to side a little
G1 X10.4 Y20 Z0.28 F1500.0 E30 ;Draw the second line
G92 E0 ;Reset Extruder
G1 Z2.0 F3000 ;Move Z Axis up

G92 E0
G92 E0
G1 F2700 E-5
;LAYER_COUNT:160
;LAYER:-6
M107
G0 F9000 X40.069 Y101.304 Z0.336
;TYPE:SUPPORT-INTERFACE
G1 F2700 E0
G1 F1125 X40.242 Y101.242 E0.02054
G1 X41.08 Y100.973 E0.11889
G1 X41.244 Y100.927 E0.13793
G1 X42.116 Y100.715 E0.23822
G1 X42.278 Y100.682 E0.25669
G1 X43.171 Y100.534 E0.35785
G1 X43.348 Y100.511 E0.3778
G1 X44.242 Y100.428 E0.47814
G1 X44.384 Y100.421 E0.49402
G1 X45.125 Y100.4 E0.57687
G1 X254.886 Y100.401 E24.01851
G1 X255.887 Y100.437 E24.13045
G1 X256.01 Y100.446 E24.14423
G1 X256.927 Y100.548 E24.24734
G1 X257.102 Y100.573 E24.2671
G1 X257.991 Y100.737 E24.36812
G1 X258.114 Y100.765 E24.38222
G1 X259.008 Y100.999 E24.48549
G1 X259.171 Y101.048 E24.50451
G1 X260.013 Y101.334 E24.60389
G1 X260.179 Y101.398 E24.62377
G1 X260.982 Y101.739 E24.72127
G1 X261.171 Y101.827 E24.74457
G1 X261.965 Y102.235 E24.84433
G1 X262.082 Y102.302 E24.8594
G1 X262.861 Y102.776 E24.9613
G1 X263.012 Y102.876 E24.98154
G1 X263.726 Y103.387 E25.07966
G1 X263.874 Y103.5 E25.10047
G1 X264.566 Y104.077 E25.20116
G1 X264.674 Y104.173 E25.21731
G1 X265.186 Y104.655 E25.29589
G1 X265.305 Y104.774 E25.3147
G1 X265.988 Y105.508 E25.42675
G1 X266.107 Y105.647 E25.4472
G1 X266.661 Y106.338 E25.54617
G1 X266.765 Y106.477 E25.56557
G1 X267.257 Y107.192 E25.66257
G1 X267.374 Y107.376 E25.68694
G1 X267.814 Y108.125 E25.78401
G1 X267.887 Y108.259 E25.80107
G1 X268.292 Y109.082 E25.90357
G1 X268.353 Y109.219 E25.92033
G1 X268.695 Y110.064 E26.02221
G1 X268.754 Y110.23 E26.04189
G1 X269.025 Y111.072 E26.14075
G1 X269.072 Y111.238 E26.16003
G1 X269.283 Y112.107 E26.25996
G1 X269.317 Y112.27 E26.27857
G1 X269.465 Y113.162 E26.37962
G1 X269.489 Y113.348 E26.40058
G1 X269.57 Y114.232 E26.49978
G1 X269.579 Y114.384 E26.5168
G1 X269.6 Y115.117 E26.59875
G1 X269.6 Y184.869 E34.39381
G1 X269.564 Y185.875 E34.50631
G1 X269.554 Y186.01 E34.52144
G1 X269.452 Y186.927 E34.62455
G1 X269.427 Y187.102 E34.64431
G1 X269.265 Y187.98 E34.74408
G1 X269.235 Y188.114 E34.75943
G1 X269.004 Y188.999 E34.86164
G1 X268.952 Y189.171 E34.88172
G1 X268.666 Y190.013 E34.9811
G1 X268.602 Y190.179 E35.00098
G1 X268.261 Y190.982 E35.09848
G1 X268.18 Y191.157 E35.12003
G1 X267.776 Y191.943 E35.21879
G1 X267.698 Y192.082 E35.2366
G1 X267.224 Y192.861 E35.33851
G1 X267.124 Y193.012 E35.35875
G1 X266.613 Y193.726 E35.45687
G1 X266.5 Y193.874 E35.47768
G1 X265.923 Y194.566 E35.57837
G1 X265.827 Y194.674 E35.59452
G1 X265.345 Y195.186 E35.6731
G1 X265.188 Y195.342 E35.69784
G1 X264.503 Y195.978 E35.8023
G1 X264.355 Y196.105 E35.82409
G1 X263.662 Y196.661 E35.92338
G1 X263.523 Y196.765 E35.94278
G1 X262.808 Y197.257 E36.03978
G1 X262.624 Y197.374 E36.06414
G1 X261.868 Y197.817 E36.16207
G1 X261.726 Y197.894 E36.18012
G1 X260.898 Y198.301 E36.28322
G1 X260.781 Y198.353 E36.29753
G1 X259.926 Y198.698 E36.40057
G1 X259.763 Y198.756 E36.4199
G1 X258.92 Y199.027 E36.51886
G1 X258.756 Y199.073 E36.5379
G1 X257.884 Y199.285 E36.63818
G1 X257.722 Y199.318 E36.65666
G1 X256.829 Y199.466 E36.75782
G1 X256.652 Y199.489 E36.77776
G1 X255.758 Y199.572 E36.8781
G1 X255.616 Y199.579 E36.89399
G1 X254.875 Y199.6 E36.97683
G1 X45.114 Y199.599 E60.41847
G1 X44.113 Y199.563 E60.53041
G1 X43.99 Y199.554 E60.5442
G1 X43.073 Y199.452 E60.64731
G1 X42.898 Y199.427 E60.66706
G1 X42.009 Y199.263 E60.76809
G1 X41.886 Y199.235 E60.78218
G1 X40.992 Y199.001 E60.88546
G1 X40.829 Y198.952 E60.90448
G1 X39.987 Y198.666 E61.00386
G1 X39.821 Y198.602 E61.02374
G1 X39.018 Y198.261 E61.12123
G1 X38.829 Y198.173 E61.14453
G1 X38.035 Y197.765 E61.24429
G1 X37.918 Y197.698 E61.25936
G1 X37.139 Y197.224 E61.36127
G1 X36.988 Y197.124 E61.38151
G1 X36.274 Y196.613 E61.47963
G1 X36.126 Y196.5 E61.50044
G1 X35.434 Y195.923 E61.60113
G1 X35.326 Y195.827 E61.61728
G1 X34.814 Y195.345 E61.69586
G1 X34.654 Y195.184 E61.72123
G1 X34.01 Y194.49 E61.82703
G1 X33.893 Y194.353 E61.84717
G1 X33.343 Y193.667 E61.94543
G1 X33.227 Y193.511 E61.96715
G1 X32.743 Y192.808 E62.06253
G1 X32.626 Y192.624 E62.0869
G1 X32.183 Y191.868 E62.18482
G1 X32.106 Y191.726 E62.20288
G1 X31.697 Y190.894 E62.30648
G1 X31.647 Y190.781 E62.32029
G1 X31.298 Y189.917 E62.42443
G1 X31.242 Y189.759 E62.44316
G1 X30.97 Y188.911 E62.54268
G1 X30.928 Y188.761 E62.56009
G1 X30.712 Y187.873 E62.66222
G1 X30.683 Y187.73 E62.67853
G1 X30.533 Y186.824 E62.78116
G1 X30.511 Y186.652 E62.80053
G1 X30.428 Y185.753 E62.90143
G1 X30.421 Y185.616 E62.91676
G1 X30.4 Y184.883 E62.99871
G1 X30.4 Y115.131 E70.79378
G1 X30.436 Y114.125 E70.90627
G1 X30.446 Y113.99 E70.9214
G1 X30.547 Y113.075 E71.02428
G1 X30.573 Y112.9 E71.04405
G1 X30.735 Y112.02 E71.14405
G1 X30.765 Y111.886 E71.15939
G1 X30.996 Y111 E71.26172
G1 X31.048 Y110.829 E71.28169
G1 X31.334 Y109.987 E71.38107
G1 X31.398 Y109.821 E71.40095
G1 X31.739 Y109.018 E71.49844
G1 X31.82 Y108.843 E71.51999
G1 X32.235 Y108.035 E71.62151
G1 X32.302 Y107.918 E71.63657
G1 X32.776 Y107.139 E71.73848
G1 X32.876 Y106.988 E71.75872
G1 X33.392 Y106.267 E71.8578
G1 X33.5 Y106.126 E71.87765
G1 X34.077 Y105.434 E71.97834
G1 X34.173 Y105.326 E71.99449
G1 X34.655 Y104.814 E72.07307
G1 X34.812 Y104.658 E72.09781
G1 X35.508 Y104.012 E72.20393
G1 X35.647 Y103.893 E72.22438
G1 X36.338 Y103.339 E72.32335
G1 X36.477 Y103.235 E72.34275
G1 X37.192 Y102.743 E72.43975
G1 X37.376 Y102.626 E72.46411
G1 X38.132 Y102.183 E72.56204
G1 X38.274 Y102.106 E72.58009
G1 X39.106 Y101.697 E72.6837
G1 X39.219 Y101.647 E72.6975
G1 X40.069 Y101.304 E72.79994
G0 F9000 X40 Y101.331
G1 F1125 X40 Y198.67 E83.67797
G0 F9000 X41.6 Y199.16
G1 F1125 X41.6 Y100.84 E94.66562
G0 F9000 X43.2 Y100.53
G1 F1125 X43.2 Y199.466 E105.72212
G0 F9000 X44.8 Y199.587
G1 F1125 X44.8 Y100.409 E116.80567
G0 F9000 X46.4 Y100.401
G1 F1125 X46.4 Y199.599 E127.89145
G0 F9000 X48 Y199.599
G1 F1125 X48 Y100.401 E138.97722
G0 F9000 X49.6 Y100.401
G1 F1125 X49.6 Y199.599 E150.063
G0 F9000 X51.2 Y199.599
G1 F1125 X51.2 Y100.401 E161.14878
G0 F9000 X52.8 Y100.401
G1 F1125 X52.8 Y199.599 E172.23456
G0 F9000 X54.4 Y199.599
G1 F1125 X54.4 Y100.401 E183.32034
G0 F9000 X56 Y100.401
G1 F1125 X56 Y199.599 E194.40612
G0 F9000 X57.6 Y199.599
G1 F1125 X57.6 Y100.401 E205.4919
G0 F9000 X59.2 Y100.401
G1 F1125 X59.2 Y199.599 E216.57767
G0 F9000 X60.8 Y199.599
G1 F1125 X60.8 Y100.401 E227.66345
G0 F9000 X62.4 Y100.401
G1 F1125 X62.4 Y199.599 E238.74923
G0 F9000 X64 Y199.599
G1 F1125 X64 Y100.401 E249.83501
G0 F9000 X65.6 Y100.401
G1 F1125 X65.6 Y199.599 E260.92079
G0 F9000 X67.2 Y199.599
G1 F1125 X67.2 Y100.401 E272.00657
G0 F9000 X68.8 Y100.401
G1 F1125 X68.8 Y199.599 E283.09235
G0 F9000 X70.4 Y199.599
G1 F1125 X70.4 Y100.401 E294.17813
G0 F9000 X72 Y100.401
G1 F1125 X72 Y199.599 E305.2639
G0 F9000 X73.6 Y199.599
G1 F1125 X73.6 Y100.401 E316.34968
G0 F9000 X75.2 Y100.401
G1 F1125 X75.2 Y199.599 E327.43546
G0 F9000 X76.8 Y199.599
G1 F1125 X76.8 Y100.401 E338.52124
G0 F9000 X78.4 Y100.401
G1 F1125 X78.4 Y199.599 E349.60702
G0 F9000 X80 Y199.599
G1 F1125 X80 Y100.401 E360.6928
G0 F9000 X81.6 Y100.401
G1 F1125 X81.6 Y199.599 E371.77858
G0 F9000 X83.2 Y199.599
G1 F1125 X83.2 Y100.401 E382.86435
G0 F9000 X84.8 Y100.401
G1 F1125 X84.8 Y199.599 E393.95013
G0 F9000 X86.4 Y199.599
G1 F1125 X86.4 Y100.401 E405.03591
G0 F9000 X88 Y100.401
G1 F1125 X88 Y199.599 E416.12169
G0 F9000 X89.6 Y199.599
G1 F1125 X89.6 Y100.401 E427.20747
G0 F9000 X91.2 Y100.401
G1 F1125 X91.2 Y199.599 E438.29325
G0 F9000 X92.8 Y199.599
G1 F1125 X92.8 Y100.401 E449.37903
G0 F9000 X94.4 Y100.401
G1 F1125 X94.4 Y199.599 E460.4648
G0 F9000 X96 Y199.599
G1 F1125 X96 Y100.401 E471.55058
G0 F9000 X97.6 Y100.401
G1 F1125 X97.6 Y199.599 E482.63636
G0 F9000 X99.2 Y199.599
G1 F1125 X99.2 Y100.401 E493.72214
G0 F9000 X100.8 Y100.401
G1 F1125 X100.8 Y199.599 E504.80792
G0 F9000 X102.4 Y199.599
G1 F1125 X102.4 Y100.401 E515.8937
G0 F9000 X104 Y100.401
G1 F1125 X104 Y199.599 E526.97948
G0 F9000 X105.6 Y199.599
G1 F1125 X105.6 Y100.401 E538.06525
G0 F9000 X107.2 Y100.401
G1 F1125 X107.2 Y199.599 E549.15103
G0 F9000 X108.8 Y199.599
G1 F1125 X108.8 Y100.401 E560.23681
G0 F9000 X110.4 Y100.401
G1 F1125 X110.4 Y199.599 E571.32259
G0 F9000 X112 Y199.599
G1 F1125 X112 Y100.401 E582.40837
G0 F9000 X113.6 Y100.401
G1 F1125 X113.6 Y199.599 E593.49415
G0 F9000 X115.2 Y199.599
G1 F1125 X115.2 Y100.401 E604.57993
G0 F9000 X116.8 Y100.401
G1 F1125 X116.8 Y199.599 E615.66571
G0 F9000 X118.4 Y199.599
G1 F1125 X118.4 Y100.401 E626.75148
G0 F9000 X120 Y100.401
G1 F1125 X120 Y199.599 E637.83726
G0 F9000 X121.6 Y199.599
G1 F1125 X121.6 Y100.401 E648.92304
G0 F9000 X123.2 Y100.401
G1 F1125 X123.2 Y199.599 E660.00882
G0 F9000 X124.8 Y199.599
G1 F1125 X124.8 Y100.401 E671.0946
G0 F9000 X126.4 Y100.401
G1 F1125 X126.4 Y199.599 E682.18038
G0 F9000 X128 Y199.599
G1 F1125 X128 Y100.401 E693.26616
G0 F9000 X129.6 Y100.401
G1 F1125 X129.6 Y199.599 E704.35193
G0 F9000 X131.2 Y199.599
G1 F1125 X131.2 Y100.401 E715.43771
G0 F9000 X132.8 Y100.401
G1 F1125 X132.8 Y199.599 E726.52349
G0 F9000 X134.4 Y199.599
G1 F1125 X134.4 Y100.401 E737.60927
G0 F9000 X136 Y100.401
G1 F1125 X136 Y199.599 E748.69505
G0 F9000 X137.6 Y199.599
G1 F1125 X137.6 Y100.401 E759.78083
G0 F9000 X139.2 Y100.401
G1 F1125 X139.2 Y199.599 E770.86661
G0 F9000 X140.8 Y199.599
G1 F1125 X140.8 Y100.401 E781.95238
G0 F9000 X142.4 Y100.401
G1 F1125 X142.4 Y199.599 E793.03816
G0 F9000 X144 Y199.599
G1 F1125 X144 Y100.401 E804.12394
G0 F9000 X145.6 Y100.401
G1 F1125 X145.6 Y199.599 E815.20972
G0 F9000 X147.2 Y199.599
G1 F1125 X147.2 Y100.401 E826.2955
G0 F9000 X148.8 Y100.401
G1 F1125 X148.8 Y199.599 E837.38128
G0 F9000 X150.4 Y199.599
G1 F1125 X150.4 Y100.401 E848.46706
G0 F9000 X152 Y100.401
G1 F1125 X152 Y199.599 E859.55284
G0 F9000 X153.6 Y199.599
G1 F1125 X153.6 Y100.401 E870.63861
G0 F9000 X155.2 Y100.401
G1 F1125 X155.2 Y199.599 E881.72439
G0 F9000 X156.8 Y199.599
G1 F1125 X156.8 Y100.401 E892.81017
G0 F9000 X158.4 Y100.401
G1 F1125 X158.4 Y199.599 E903.89595
G0 F9000 X160 Y199.599
G1 F1125 X160 Y100.401 E914.98173
G0 F9000 X161.6 Y100.401
G1 F1125 X161.6 Y199.599 E926.06751
G0 F9000 X163.2 Y199.599
G1 F1125 X163.2 Y100.401 E937.15329
G0 F9000 X164.8 Y100.401
G1 F1125 X164.8 Y199.599 E948.23906
G0 F9000 X166.4 Y199.599
G1 F1125 X166.4 Y100.401 E959.32484
G0 F9000 X168 Y100.401
G1 F1125 X168 Y199.599 E970.41062
G0 F9000 X169.6 Y199.599
G1 F1125 X169.6 Y100.401 E981.4964
G0 F9000 X171.2 Y100.401
G1 F1125 X171.2 Y199.599 E992.58218
G0 F9000 X172.8 Y199.599
G1 F1125 X172.8 Y100.401 E1003.66796
G0 F9000 X174.4 Y100.401
G1 F1125 X174.4 Y199.599 E1014.75374
G0 F9000 X176 Y199.599
G1 F1125 X176 Y100.401 E1025.83951
G0 F9000 X177.6 Y100.401
G1 F1125 X177.6 Y199.599 E1036.92529
G0 F9000 X179.2 Y199.599
G1 F1125 X179.2 Y100.401 E1048.01107
G0 F9000 X180.8 Y100.401
G1 F1125 X180.8 Y199.599 E1059.09685
G0 F9000 X182.4 Y199.599
G1 F1125 X182.4 Y100.401 E1070.18263
G0 F9000 X184 Y100.401
G1 F1125 X184 Y199.599 E1081.26841
G0 F9000 X185.6 Y199.599
G1 F1125 X185.6 Y100.401 E1092.35419
G0 F9000 X187.2 Y100.401
G1 F1125 X187.2 Y199.599 E1103.43996
G0 F9000 X188.8 Y199.599
G1 F1125 X188.8 Y100.401 E1114.52574
G0 F9000 X190.4 Y100.401
G1 F1125 X190.4 Y199.599 E1125.61152
G0 F9000 X192 Y199.599
G1 F1125 X192 Y100.401 E1136.6973
G0 F9000 X193.6 Y100.401
G1 F1125 X193.6 Y199.599 E1147.78308
G0 F9000 X195.2 Y199.599
G1 F1125 X195.2 Y100.401 E1158.86886
G0 F9000 X196.8 Y100.401
G1 F1125 X196.8 Y199.599 E1169.95464
G0 F9000 X198.4 Y199.599
G1 F1125 X198.4 Y100.401 E1181.04042
G0 F9000 X200 Y100.401
G1 F1125 X200 Y199.599 E1192.12619
G0 F9000 X201.6 Y199.599
G1 F1125 X201.6 Y100.401 E1203.21197
G0 F9000 X203.2 Y100.401
G1 F1125 X203.2 Y199.599 E1214.29775
G0 F9000 X204.8 Y199.599
G1 F1125 X204.8 Y100.401 E1225.38353
G0 F9000 X206.4 Y100.401
G1 F1125 X206.4 Y199.599 E1236.46931
G0 F9000 X208 Y199.599
G1 F1125 X208 Y100.401 E1247.55509
G0 F9000 X209.6 Y100.401
G1 F1125 X209.6 Y199.599 E1258.64087
G0 F9000 X211.2 Y199.599
G1 F1125 X211.2 Y100.401 E1269.72664
G0 F9000 X212.8 Y100.401
G1 F1125 X212.8 Y199.599 E1280.81242
G0 F9000 X214.4 Y199.599
G1 F1125 X214.4 Y100.401 E1291.8982
G0 F9000 X216 Y100.401
G1 F1125 X216 Y199.599 E1302.98398
G0 F9000 X217.6 Y199.599
G1 F1125 X217.6 Y100.401 E1314.06976
G0 F9000 X219.2 Y100.401
G1 F1125 X219.2 Y199.599 E1325.15554
G0 F9000 X220.8 Y199.599
G1 F1125 X220.8 Y100.401 E1336.24132
G0 F9000 X222.4 Y100.401
G1 F1125 X222.4 Y199.599 E1347.32709
G0 F9000 X224 Y199.599
G1 F1125 X224 Y100.401 E1358.41287
G0 F9000 X225.6 Y100.401
G1 F1125 X225.6 Y199.599 E1369.49865
G0 F9000 X227.2 Y199.599
G1 F1125 X227.2 Y100.401 E1380.58443
G0 F9000 X228.8 Y100.401
G1 F1125 X228.8 Y199.599 E1391.67021
G0 F9000 X230.4 Y199.599
G1 F1125 X230.4 Y100.401 E1402.75599
G0 F9000 X232 Y100.401
G1 F1125 X232 Y199.599 E1413.84177
G0 F9000 X233.6 Y199.599
G1 F1125 X233.6 Y100.401 E1424.92754
G0 F9000 X235.2 Y100.401
G1 F1125 X235.2 Y199.599 E1436.01332
G0 F9000 X236.8 Y199.599
G1 F1125 X236.8 Y100.401 E1447.0991
G0 F9000 X238.4 Y100.401
G1 F1125 X238.4 Y199.599 E1458.18488
G0 F9000 X240 Y199.599
G1 F1125 X240 Y100.401 E1469.27066
G0 F9000 X241.6 Y100.401
G1 F1125 X241.6 Y199.599 E1480.35644
G0 F9000 X243.2 Y199.599
G1 F1125 X243.2 Y100.401 E1491.44222
G0 F9000 X244.8 Y100.401
G1 F1125 X244.8 Y199.599 E1502.528
G0 F9000 X246.4 Y199.599
G1 F1125 X246.4 Y100.401 E1513.61377
G0 F9000 X248 Y100.401
G1 F1125 X248 Y199.599 E1524.69955
G0 F9000 X249.6 Y199.599
G1 F1125 X249.6 Y100.401 E1535.78533
G0 F9000 X251.2 Y100.401
G1 F1125 X251.2 Y199.599 E1546.87111
G0 F9000 X252.8 Y199.599
G1 F1125 X252.8 Y100.401 E1557.95689
G0 F9000 X254.4 Y100.401
G1 F1125 X254.4 Y199.599 E1569.04267
G0 F9000 X256 Y199.55
G1 F1125 X256 Y100.446 E1580.11794
G0 F9000 X257.6 Y100.665
G1 F1125 X257.6 Y199.339 E1591.14516
G0 F9000 X259.2 Y198.937
G1 F1125 X259.2 Y101.058 E1602.08354
G0 F9000 X260.8 Y101.662
G1 F1125 X260.8 Y198.345 E1612.88825
G0 F9000 X262.4 Y197.506
G1 F1125 X262.4 Y102.496 E1623.50601
G0 F9000 X264 Y103.606
G1 F1125 X264 Y196.39 E1633.87499
G0 F9000 X265.6 Y194.916
G1 F1125 X265.6 Y105.092 E1643.91319
G0 F9000 X267.2 Y107.11
G1 F1125 X267.2 Y192.898 E1653.50035
G0 F9000 X268.8 Y189.619
G1 F1125 X268.8 Y110.373 E1662.35641
G1 F2700 E1657.35641
G0 F9000 X269.764 Y109.894
G0 X269.259 Y108.638
G0 X268.279 Y106.815
G0 X267.498 Y105.681
G0 X266.065 Y104.028
G0 X264.364 Y102.534
G0 X262.626 Y101.387
G0 X261.421 Y100.769
G0 X259.503 Y100.036
G0 X258.199 Y99.694
G0 X256.114 Y99.387
G0 X254.87 Y99.336
G0 X44.161 Y99.368
G0 X42.084 Y99.634
G0 X40.775 Y99.953
G0 X39.184 Y100.529
G0 X37.931 Y101.09
G0 X38.4 Y102.044
G1 F2700 E1662.35641
G1 F1125 X38.4 Y197.952 E1673.07452
G0 F9000 X36.8 Y196.989
G1 F1125 X36.8 Y103.012 E1683.57683
